IconSet/eva icons.iconjar/icons/camera-outline.svg

<svg xmlns="http://www.w3.org/2000/svg" viewBox="0 0 24 24"><g data-name="Layer 2"><g data-name="camera"><rect width="24" height="24" opacity="0"/><path d="M19 7h-3V5.5A2.5 2.5 0 0 0 13.5 3h-3A2.5 2.5 0 0 0 8 5.5V7H5a3 3 0 0 0-3 3v8a3 3 0 0 0 3 3h14a3 3 0 0 0 3-3v-8a3 3 0 0 0-3-3zm-9-1.5a.5.5 0 0 1 .5-.5h3a.5.5 0 0 1 .5.5V7h-4zM20 18a1 1 0 0 1-1 1H5a1 1 0 0 1-1-1v-8a1 1 0 0 1 1-1h14a1 1 0 0 1 1 1z"/><path d="M12 10.5a3.5 3.5 0 1 0 3.5 3.5 3.5 3.5 0 0 0-3.5-3.5zm0 5a1.5 1.5 0 1 1 1.5-1.5 1.5 1.5 0 0 1-1.5 1.5z"/></g></g></svg>

<svg xmlns="http://www.w3.org/2000/svg" viewBox="0 0 24 24"><defs><style>.cls-1{fill:#fff;opacity:0;}.cls-2{fill:#231f20;}</style></defs><title>camera</title><g id="Layer_2" data-name="Layer 2"><g id="camera"><g id="camera-2" data-name="camera"><rect class="cls-1" width="24" height="24"/><path class="cls-2" d="M19,7H16V5.5A2.5,2.5,0,0,0,13.5,3h-3A2.5,2.5,0,0,0,8,5.5V7H5a3,3,0,0,0-3,3v8a3,3,0,0,0,3,3H19a3,3,0,0,0,3-3V10A3,3,0,0,0,19,7ZM10,5.5a.5.5,0,0,1,.5-.5h3a.5.5,0,0,1,.5.5V7H10ZM20,18a1,1,0,0,1-1,1H5a1,1,0,0,1-1-1V10A1,1,0,0,1,5,9H19a1,1,0,0,1,1,1Z"/><path class="cls-2" d="M12,10.5A3.5,3.5,0,1,0,15.5,14,3.5,3.5,0,0,0,12,10.5Zm0,5A1.5,1.5,0,1,1,13.5,14,1.5,1.5,0,0,1,12,15.5Z"/></g></g></g></svg>
